!!!!SEGMENT: pl-wtm--r-274-m--004_moniuszko-stanislaw--cztery-piesni-nabozne-agnus.krn
!!!cenid: 18xx:1734
!!!COM: Moniuszko, Stanisław
!!!COM-rismid: pe30008351
!!!CDT: 1819/05/05-1872/06/04
!!!CNT: Polish
!!!OPR: Cztery pieśni nabożne
!!!OTL: Agnus
!!!OMV: 004
!!!PDT:
!!!AGN: Sacred; Mass
!!!SMS-siglum: PL-Wtm
!!!SMS-shelfmark: R 274/M
!!!SMS-shelfwork: 001-004 M
!!!SMS-variant:
!!!SMS-altvar:
!!!NIFC-rismid: 1001097043
!!!URL-scan: http://repozytorium.nifc.pl/skany/pl-wtm-nut--r274m
!!!ONB-nifc:
!!!key:
**kern	**kern	**kern	**dynam	**kern	**dynam	**kern	**text	**dynam
*part4	*part4	*part3	*part3	*part2	*part2	*part1	*part1	*part1
*staff5	*staff4	*staff3	*	*staff2	*	*staff1	*staff1	*
*Iempty	*Iorgan	*Iempty	*	*Iempty	*	*Iempty	*	*
*	*I"Organo	*I"Solo.	*	*I"Solo.	*	*I"Solo.	*	*
*	*I'org	*I'[T]	*	*I'[A]	*	*I'[S]	*	*
*clefF4	*clefG2	*clefC4	*	*clefC3	*	*clefC1	*	*
*	*ok[f#]	*	*	*ok[F#]	*	*	*	*
*k[f#]	*k[f#]	*k[f#]	*	*k[f#]	*	*k[f#]	*	*
*e:	*e:	*e:	*	*e:	*	*e:	*	*
*M4/4	*M4/4	*M4/4	*	*M4/4	*	*M4/4	*	*
*met(c)	*met(c)	*met(c)	*	*met(c)	*	*met(c)	*	*
=1	=1	=1	=1	=1	=1	=1	=1	=1
!!LO:TX:t=P:problem:all\right:global
*^	*^	*	*	*	*	*	*	*
*2\right	*	*	*2\right	*	*	*	*	*	*	*
!	!	!	!	!	!	!	!	!LO:TX:a:t=Moderato.	!	!
2G/ 2B	2E\	2e/	2e\	1r	.	1r	.	1r	.	.
4G/ 4B	4E\	4e/	4e\	.	.	.	.	.	.	.
4G/ 4B	4E\	4e/	4e\	.	.	.	.	.	.	.
*v	*v	*	*	*	*	*	*	*	*	*
=2	=2	=2	=2	=2	=2	=2	=2	=2	=2
2E\ 2B	2g/	2e\	1r	.	1r	.	1r	.	.
4E\ 4B	4g/	4e\	.	.	.	.	.	.	.
4G\	4g/	4e\	.	.	.	.	.	.	.
=3!|:	=3!|:	=3!|:	=3!|:	=3!|:	=3!|:	=3!|:	=3!|:	=3!|:	=3!|:
*ped	*	*	*2\right	*	*2\right	*	*2\right	*	*
!	!	!	!	!	!	!	!LO:TX:a:t=Agnus.	!	!
1E	8r	4B/ 4g	2e\	.	2g\	.	2b\	Pa-	.
.	(<8E</L	.	.	.	.	.	.	.	.
.	8G</	4ryy	.	.	.	.	.	.	.
.	8B</J	.	.	.	.	.	.	.	.
.	8e/L	2ryy	4e\	.	4g\	.	4b\	-daj-	.
.	8g/	.	.	.	.	.	.	.	.
.	8b/	.	4e\	.	4g\	.	4b\	-cie	.
.	8e/J)	.	.	.	.	.	.	.	.
*	*v	*v	*	*	*	*	*	*	*
=4	=4	=4	=4	=4	=4	=4	=4	=4
1D#X	8r	2f#\	.	2a\	.	2b\	lu-	.
!	!LO:TX:t=P:problem=mixed beam	!	!	!	!	!	!	!
.	(8F#</L	.	.	.	.	.	.	.
.	8A</	.	.	.	.	.	.	.
.	8B</	.	.	.	.	.	.	.
.	8d#X\	4f#\	.	4a\	.	4b\	-dy	.
.	8f#\	.	.	.	.	.	.	.
.	8b\	4r	.	4r	.	4r	.	.
.	8B/J)	.	.	.	.	.	.	.
=5	=5	=5	=5	=5	=5	=5	=5	=5
1E	8r	4.e\	.	4.g\	.	4.b\	u-	.
!	!LO:TX:t=P:problem=mixed beam	!	!	!	!	!	!	!
.	(8E</L	.	.	.	.	.	.	.
.	8G</	.	.	.	.	.	.	.
.	8B</	8e\	.	8g\	.	8b\	-niż-	.
.	8e\	4e\	.	4g\	.	4b\	-cie	.
.	8b\	.	.	.	.	.	.	.
.	8g\	4e\	.	4g\	.	4b\	się	.
.	8e\J)	.	.	.	.	.	.	.
=6	=6	=6	=6	=6	=6	=6	=6	=6
1A	8r	2e\	.	2a\	.	2cc\	tro-	.
!	!LO:TX:t=P:problem=mixed beam	!	!	!	!	!	!	!
.	(8E</L	.	.	.	.	.	.	.
.	8A</	.	.	.	.	.	.	.
.	8c</	.	.	.	.	.	.	.
.	8e\	4e\	.	4a\	.	4cc\	-ny	.
.	8a\	.	.	.	.	.	.	.
.	8cc\	4r	.	4r	.	4r	.	.
.	8ee\J)	.	.	.	.	.	.	.
=7	=7	=7	=7	=7	=7	=7	=7	=7
1E	8r	2e\	.	2g\	.	2b\	przed	.
!	!LO:TX:t=P:problem=mixed beam	!	!	!	!	!	!	!
.	(8E</L	.	.	.	.	.	.	.
.	8G</	.	.	.	.	.	.	.
.	8B</	.	.	.	.	.	.	.
!	!	!	!	!	!	!LO:SIC:v:l:s=śmier	!	!
.	8e\	4e\	.	4g\	.	4b\	smier-	.
.	8b\	.	.	.	.	.	.	.
.	8g\	4e\	.	4g\	.	4b\	-tel-	.
.	8e\J)	.	.	.	.	.	.	.
!!LO:LB:g=original
=8	=8	=8	=8	=8	=8	=8	=8	=8
1F#	8r	2d\	.	2a\	.	2.dd\	-ni-	.
!	!LO:TX:t=P:problem=mixed beam	!	!	!	!	!	!	!
.	(8D</L	.	.	.	.	.	.	.
.	8A</	.	.	.	.	.	.	.
.	8d\	.	.	.	.	.	.	.
.	8f#\	2d\	.	2a\	.	.	.	.
.	8a\	.	.	.	.	.	.	.
.	8cc\	.	.	.	.	4cc\	-Ków	.
!	!LO:TX:t=P:problem=mixed beam	!	!	!	!	!	!	!
.	8d/J)	.	.	.	.	.	.	.
=9	=9	=9	=9	=9	=9	=9	=9	=9
1G	8r	4.d\	.	4.g\	.	4.b\	o-	.
!	!LO:TX:t=P:problem=mixed beam	!	!	!	!	!	!	!
.	(8D</L	.	.	.	.	.	.	.
.	8G</	.	.	.	.	.	.	.
.	8B</	8B\	.	8d\	.	8g\	-kiem	.
.	8d\	4B\	.	4d\	.	4g\	u-	.
.	8g\	.	.	.	.	.	.	.
.	8d\	4B\	.	4d\	.	4g\	-ta-	.
!	!LO:TX:t=P:problem=mixed beam	!	!	!	!	!	!	!
.	8B</J)	.	.	.	.	.	.	.
=10	=10	=10	=10	=10	=10	=10	=10	=10
*^	*	*	*	*	*	*	*	*
8ryy	2C\	2r	2.c\	.	2.e\	.	2g\	-jo-	.
[[<8C/L	.	.	.	.	.	.	.	.	.
[[<8E/	.	.	.	.	.	.	.	.	.
[<8G/J	.	.	.	.	.	.	.	.	.
2C/]] 2E]] 2G]	2r	8r	.	.	.	.	2a\	-ne	.
.	.	(8c/L	.	.	.	.	.	.	.
.	.	8e/	4e\	.	4e\	.	.	.	.
.	.	8g/J)	.	.	.	.	.	.	.
*v	*v	*	*	*	*	*	*	*	*
=11	=11	=11	=11	=11	=11	=11	=11	=11
1E	8r	2e\	.	2g\	.	2b\	pod	.
!	!LO:TX:t=P:problem=mixed beam	!	!	!	!	!	!	!
.	(8E</L	.	.	.	.	.	.	.
.	8G</	.	.	.	.	.	.	.
.	8B</	.	.	.	.	.	.	.
.	8e\	4e\	.	4g\	.	4b\	po-	.
.	8g\	.	.	.	.	.	.	.
.	8b\	4e\	.	4g\	.	4b\	-sta-	.
.	8e\J)	.	.	.	.	.	.	.
=12	=12	=12	=12	=12	=12	=12	=12	=12
1D#X	8r	2f#\	.	2a\	.	2b\	-cia-	.
!	!LO:TX:t=P:problem=mixed beam	!	!	!	!	!	!	!
.	(8F#</L	.	.	.	.	.	.	.
.	8B</	.	.	.	.	.	.	.
.	8d#X\	.	.	.	.	.	.	.
.	8f#\	2f#\	.	2a\	.	2b\	-mi	.
.	8a\	.	.	.	.	.	.	.
.	8b\	.	.	.	.	.	.	.
.	8B</J)	.	.	.	.	.	.	.
=13	=13	=13	=13	=13	=13	=13	=13	=13
1Dn	8r	2fn\	.	2g#X\	.	2b\	wi-	.
!	!LO:TX:t=P:problem=mixed beam	!	!	!	!	!	!	!
.	(8Fn</L	.	.	.	.	.	.	.
.	8G#X</	.	.	.	.	.	.	.
.	8B</	.	.	.	.	.	.	.
.	8d\	4f\	.	4g#\	.	4b\	-na	.
.	8fn\	.	.	.	.	.	.	.
.	8g#X\	4f\	.	4g#\	.	4b\	i	.
.	8b\J)	.	.	.	.	.	.	.
=14	=14	=14	=14	=14	=14	=14	=14	=14
1D-X	8r	2fn\	.	2g#X\	.	2b\	chle-	.
.	(8Fn</L	.	.	.	.	.	.	.
.	8A-X</	.	.	.	.	.	.	.
.	8d-X\	.	.	.	.	.	.	.
!	!	!	!LO:HP:a	!	!	!	!	!LO:DY:a:i:t=cres_cen_do.:ext=ud
!	!	!	!	!	!	!LO:TX:t=cres_cen_do.:problem=dynamics with extention lines	!	!
.	8fn\	2f\	<	2g#\	.	2b\	-ba	<
.	8a-X\	.	.	.	.	.	.	.
.	8bn\	.	.	.	.	.	.	.
.	8Bn</J)	.	.	.	.	.	.	.
=15	=15	=15	=15	=15	=15	=15	=15	=15
1C	8r	2fn\	.	2a\	.	2cc\	Bóg	.
.	(8Fn</L	.	.	.	.	.	.	.
.	8A</	.	.	.	.	.	.	.
.	8c\	.	.	.	.	.	.	.
.	8fn\	4f\	.	4a\	.	4cc\	zstą-	.
.	8a\	.	.	.	.	.	.	.
.	8cc\	4f\	.	4a\	.	4cc\	-pił	.
.	8c\J)	.	.	.	.	.	.	.
=16	=16	=16	=16	=16	=16	=16	=16	=16
1BBn	8r	2fn\	.	2g#X\	.	2.dd\	z_nie	.
.	(<8D</L	.	.	.	.	.	.	.
.	8Fn</	.	.	.	.	.	.	.
.	8A-X</J	.	.	.	.	.	.	.
.	8B/L	2f\	.	2g#\	.	.	.	.
.	8d/	.	.	.	.	.	.	.
!	!LO:SIC:v:s=8fn	!	!	!	!	!	!	!
.	8f#/	.	.	.	.	4dd\	ba	.
.	8a-X/J)	.	.	.	.	.	.	.
=17	=17	=17	=17	=17	=17	=17	=17	=17
1BBn	8r	2f#X\	.	2a\	.	2dd#X\	Bóg	.
.	(<8BB</L	.	.	.	.	.	.	.
.	8D#X</	.	.	.	.	.	.	.
.	8G</J	.	.	.	.	.	.	.
.	8B/L	4f#\	.	4a\	.	4cc#X\	zstą-	.
.	8d#X/	.	.	.	.	.	.	.
.	8f#/	4f#\	[[	4a\	.	4dd#\	-pił	[
.	8a/J)	.	.	.	.	.	.	.
!!LO:LB:g=original
=18	=18	=18	=18	=18	=18	=18	=18	=18
1C#X	8r	2.e\	.	2g#X\	.	2ee\	z_nie-	.
.	(8GG#X</L	.	.	.	.	.	.	.
.	8C#X</	.	.	.	.	.	.	.
.	8E</J	.	.	.	.	.	.	.
!	!LO:TX:t=P:problem=mixed beam	!	!	!	!	!	!	!
.	8G#X</L	.	.	4e\	.	4e/	-ba	.
.	8c#X\	.	.	.	.	.	.	.
.	8e\	4e\	.	4r	.	4r	.	.
.	8g#X\J)	.	.	.	.	.	.	.
=19	=19	=19	=19	=19	=19	=19	=19	=19
!	!	!	!LO:DY:b:t=p.	!	!LO:DY:b:t=p.	!LO:TX:a:i:t=dolce.	!	!LO:DY:a:t=p.
1AA	8r	2e\	p	2cc#X\	p	2ee\	Bóg	p
!	!LO:TX:t=P:problem=mixed beam	!	!	!	!	!	!	!
.	(8C#X</L	.	.	.	.	.	.	.
.	8E</	.	.	.	.	.	.	.
.	8A</	.	.	.	.	.	.	.
.	8c#X\	4e\	.	4b\	.	4dd#X\	zstą-	.
.	8e\	.	.	.	.	.	.	.
.	8a\	4E/	.	4a\	.	4cc#X\	-pił	.
.	8cc#X\J)	.	.	.	.	.	.	.
=20	=20	=20	=20	=20	=20	=20	=20	=20
1BB	8ryy	(2B\	.	(2g#X\	.	([1b	z_Nie-	.
.	(8BB</L	.	.	.	.	.	.	.
.	8E</	.	.	.	.	.	.	.
.	8G#X</J	.	.	.	.	.	.	.
!	!LO:TX:t=P:problem=mixed beam	!	!	!	!	!	!	!
.	8B</L	4A\	.	4f#X\	.	.	.	.
.	8d#X\	.	.	.	.	.	.	.
.	8e\	4G#X\	.	4e\	.	.	.	.
.	8g#X\J)	.	.	.	.	.	.	.
=21	=21	=21	=21	=21	=21	=21	=21	=21
*	*^	*	*	*	*	*	*	*
1BB	2.b/	8r	2F#/	.	1d#X)	.	2.b\]	.	.
.	.	(8F#</L	.	.	.	.	.	.	.
.	.	8A</	.	.	.	.	.	.	.
.	.	8B</J	.	.	.	.	.	.	.
!	!LO:TX:t=P:problem=mixed beam	!	!	!	!	!	!	!	!
.	.	8d#X\L	2B\)	.	.	.	.	.	.
.	.	8f#\	.	.	.	.	.	.	.
.	4a/	8a\	.	.	.	.	4a\)	.	.
.	.	8B</J)	.	.	.	.	.	.	.
=22	=22	=22	=22	=22	=22	=22	=22	=22	=22
[1EE 1E	2e/ 2g#X	8r	2E/	.	2e\	.	2g#X\	-ba.	.
.	.	(<8G#X</L	.	.	.	.	.	.	.
.	.	8B</	.	.	.	.	.	.	.
.	.	8e</J)	.	.	.	.	.	.	.
.	2ryy	(8g#/L	2r	.	2r	.	2r	.	.
.	.	8b/	.	.	.	.	.	.	.
.	.	8ee/	.	.	.	.	.	.	.
.	.	8gg#X/J)	.	.	.	.	.	.	.
=23	=23	=23	=23	=23	=23	=23	=23	=23	=23
*	*	*^	*	*	*	*	*	*	*
1EE] 1E	(8bb\L	8rc	8ryy	1r	.	1r	.	1r	.	.
.	8aa\	[[<8B<L	4.B<\	.	.	.	.	.	.	.
.	8gg#X\	[[8d\	.	.	.	.	.	.	.	.
.	8ffn\J	[8e\J	.	.	.	.	.	.	.	.
.	8ee/L	2B<\]] 2d]] 2e] 2g#X	2ryy	.	.	.	.	.	.	.
.	8dd/	.	.	.	.	.	.	.	.	.
.	8cc/	.	.	.	.	.	.	.	.	.
.	8b/J)	.	.	.	.	.	.	.	.	.
=24	=24	=24	=24	=24	=24	=24	=24	=24	=24	=24
1EE 1E	(2a/ 2cc	8r	8ryy	1r	.	1r	.	1r	.	.
.	.	[[<8A</L	4.A</	.	.	.	.	.	.	.
.	.	[[8c\	.	.	.	.	.	.	.	.
.	.	[8e\J	.	.	.	.	.	.	.	.
.	(8a/L)	2A<\]] 2c]] 2e]	2ryy	.	.	.	.	.	.	.
.	8cc/	.	.	.	.	.	.	.	.	.
.	8ee/	.	.	.	.	.	.	.	.	.
.	8aa/J)	.	.	.	.	.	.	.	.	.
*	*v	*v	*v	*	*	*	*	*	*	*
!!LO:PB:g=original
=25	=25	=25	=25	=25	=25	=25	=25	=25
*^	*	*	*	*	*	*	*	*
*	*^	*	*	*	*	*	*	*	*
8r	2E\	[<1EE	(>8gg#X/L	1r	.	1r	.	1r	.	.
8E/L	.	.	8ff#X/	.	.	.	.	.	.	.
8A/	.	.	8dd#X/	.	.	.	.	.	.	.
8c/J	.	.	8ccn/J	.	.	.	.	.	.	.
4d#X>\	2ryy	.	8b/L	.	.	.	.	.	.	.
.	.	.	8a/	.	.	.	.	.	.	.
8c#X>\L	.	.	8e/	.	.	.	.	.	.	.
8d#>\J	.	.	8f#/J)	.	.	.	.	.	.	.
*	*v	*v	*	*	*	*	*	*	*	*
=26	=26	=26	=26	=26	=26	=26	=26	=26	=26
*	*	*^	*	*	*	*	*	*	*
8r	1EE] 1E	[2e/ 2g#X	2ryy	1r	.	1r	.	1r	.	.
(<8B/L	.	.	.	.	.	.	.	.	.	.
8E/	.	.	.	.	.	.	.	.	.	.
8F#/J)	.	.	.	.	.	.	.	.	.	.
4G#X/	.	8r	2e\_	.	.	.	.	.	.	.
.	.	8b/L	.	.	.	.	.	.	.	.
[<4B/	.	8g#/	.	.	.	.	.	.	.	.
.	.	8b/J	.	.	.	.	.	.	.	.
=27	=27	=27	=27	=27	=27	=27	=27	=27	=27	=27
8B/]	2EE\ 2E	[>2ee/	2e\]	1r	.	1r	.	1r	.	.
(<8B/L	.	.	.	.	.	.	.	.	.	.
8E/	.	.	.	.	.	.	.	.	.	.
8F#/J)	.	.	.	.	.	.	.	.	.	.
(<4Gn/	2r	(<8ee/L]	2ryy	.	.	.	.	.	.	.
.	.	8ccn/	.	.	.	.	.	.	.	.
8B/L)	.	8b/	.	.	.	.	.	.	.	.
8e>\J	.	8e/J)	.	.	.	.	.	.	.	.
*v	*v	*	*	*	*	*	*	*	*	*
*	*v	*v	*	*	*	*	*	*	*
=28:|!	=28:|!	=28:|!	=28:|!	=28:|!	=28:|!	=28:|!	=28:|!	=28:|!
1EE; 1E 1B	1e; 1g	1r	.	1r	.	1r	.	.
!!LO:PB:g=original
==	==	==	==	==	==	==	==	==
*-	*-	*-	*-	*-	*-	*-	*-	*-
!!!system-decoration: [(s1,s2,s3)]{(s4,s5)}
!!!RDF**kern: < = below
!!!RDF**kern: > = above
!!!AIN: 4 empty
!!!ENC: Marta Chmielewska
!!!END: 2021-04-16
!!!ENC: Kamil Watkowski
!!!END: 2021-04-02
